X: 9252
T: Dan R's Favourite
R: jig
M: 6/8
K: Amajor
ecA ABc|BGE E2 f|ecA Ace|fba g2 f|
ecA ABc|BGE E3|FGA BGE|1 A3 A2 f:|A3 A3||
|:cAc ece|fdf eaf|ecA ecA|BGE EGB|
cAc ece|fff eaf|ecA EFG|1 A3 A3:|2 A3||
ecA ABc|BGE E3|ecA Ace|fba g2 f|
ecA ABc|BGE E3|FGA BGE|1 A3 A2 f:|A3 A2||
cAc ece|fff eaf|ecA ABc|BGE E2 e|
cAc ece|fff eaf|ecA EFG|1 A3 A2:|2 A3||

